X:1
T:Title
%%score ( 1 2 ) 3
L:1/8
Q:1/4=81
M:2/4
K:D
V:1 treble nm="Grand Piano, Soprano"
V:2 treble 
V:3 bass nm="Choir Pad, Baytown, 11.11.11 D"
V:1
 [FA][DF] [Fd][GB] | [FA]2 [DF]2 | [GB][FA] [DF]D | [CE]4 | [DF][EG] [FA][GB] | [FA]2 [Fd]2 | %6
w: By~William~Fiske~Sherwin,~1873 * * *||||||
 [Ec][EB] [EA][D^G] | A4 | [FA][DF] [Fd][Ac] | [GB]2 [GB]2 | ^G[GB] [Ge][Bd] | c2- [Gc]2 | %12
w: ||||||
 [Fd][Af] [Ge][Fd] | [Ac][GB] [FA][EG] | [DF]2 [CE]2 | D4 | AA AA | [Fd]2 [FA]2 | %18
w: ||||||
 [Fd][Ec] [Fd][Ge] | [Af]4 | [Ge][Bd] [Ac][GB] | [FA][EG] [DF][DA] | [Fd]2 [Ec]2 | [Fd]4- | %24
w: ||||||
 [Fd]4 |] %25
w: |
V:2
 x4 | x4 | x4 | x4 | x4 | x4 | x4 | CE G2 | x4 | x4 | x4 | A2 z2 | x4 | x4 | x4 | x4 | x4 | x4 | %18
 x4 | x4 | x4 | x4 | x4 | x4 | x4 |] %25
V:3
 [D,A,][D,A,] [D,A,][D,D] | [D,D]2 [D,A,]2 | [D,D][D,D] [D,A,][D,F,] | [A,,A,]4 | %4
 [D,A,][D,A,] [D,D][D,D] | [D,D]2 [D,A,]2 | [E,A,][E,D] [E,C][E,B,] | [A,,A,]4 | %8
 [D,A,][D,A,] [D,A,][F,D] | [G,D]2 [G,D]2 | [E,E][E,E] [E,E][^G,E] | [A,E]4 | %12
 [D,D][D,D] [C,A,][D,D] | [G,D][G,D] [G,D][G,B,] | A,2 [A,,G,]2 | [D,F,]4 | A,A, A,A, | %17
 [D,A,]2 [D,D]2 | [D,A,][D,A,] [D,A,][D,A,] | [D,D]4 | [G,B,][G,B,] [G,C][G,D] | %21
 [D,D][D,A,] [D,A,][F,D] | A,2 [A,,A,]2 | [D,A,]4- | [D,A,]4 |] %25

